X: 1
T: the Drover
O: from Joe Yates Sofala NSW
R: polka
Z: 2014 John Chambers <jc:trillian.mit.edu>
S: http://www.kangaroovalleyfolkfestival.com.au/USERIMAGES/Bush%20Dance%2014-05-03.pdf
N: In a set for Galopede
M: C
L: 1/8
K: G
Bc |:\
"G"d2BB e2d2 | d2B2 G2F2 | "C"E3F G2E2 | "G"(3EFE D2 B,2D2 |\
G3D G2B2 |[1 "Em"e2d2 c2B2 | "A7"A4 A3B | "D7"A4 B2c2 :|
[2 "A7"e2d2 A2B2 | "D7"G2FF E2F2 | "G"G4 G2F2 |]\
"C"E2cc c2E2 | ccc2 E3(F | "G"E2)D2 G2A2 | B4 B3c |
"A7"B2AA A2E2 | AAA2 A2G2 | "D7"F2B2 A2G2 | A4 B2c2 |\
"G"d2B2 e2d2 | d2B2 G2F2 |
"C"E3F G2E2 | "G"(3EFE D2 B,2D2 |\
G3D G2B2 | "A7"e2d2 A2B2 | "D7"G2FF E2F2 | "G"G4 G4 |]
